X:37
T:B037-  Bonny lad, prithee lay thy pipe down
Q:1/4=120
L:1/4
M:6/4
K:Dm
D2EF3/2G/2A|d3/2e/2^cd2e|fcdcAF|F/2G/2 G3/2 F/4G/4 A3|\
D2EF3/2 G/2A|d3/2e/2^cd2e|fcdcAF|F/2G/2G3/2 F/4G/4 A3|\
g2agf/2e/2 d/2c/2|f2c/2A/2G2A/2B/2|c2d/4e/4f/2 cAF|\
F2EF3|g2agf/2e/2 d/2c/2|f3/2 e/2f/2g/2a2g/2e/2|\
d3/2e/2d^cAc|(d3d3)|]

